img/logos/karma.svg

<?xml version="1.0" encoding="UTF-8" standalone="no" ?>
<svg width="256px" height="198px" viewBox="0 0 256 198" version="1.1" xmlns="http://www.w3.org/2000/svg" xmlns:xlink="http://www.w3.org/1999/xlink" preserveAspectRatio="xMinYMin meet">
    <g>
        <path d="M154.565149,138.601931 L193.810636,197.149425 L255.853854,197.149425 L185.543111,93.2663908 L154.565149,138.601931" fill="#429F87"></path>
        <path d="M29.4919847,169.993808 L58.2277395,142.923525 L104.170421,197.149425 L74.6784368,88.3749272 L49.7777778,129.336889 L29.4919847,169.993808" fill="#429F87"></path>
        <path d="M29.4919847,169.993808 L74.6784368,88.3749272 L45.9495479,115.457962 L0,61.2300996 L29.4919847,169.993808" fill="#56C5A8"></path>
        <path d="M249.938391,0.603218391 L187.895172,0.603218391 L149.896337,56.7466667 L149.896337,0.603218391 L92.9848889,0.603218391 L92.9848889,58.8319387 L123.329226,170.665686 L130.400123,197.149425 L149.896337,197.149425 L149.896337,148.011157 L249.938391,0.603218391" fill="#56C5A8"></path>
    </g>
</svg>

<svg width="256" height="198" viewBox="0 0 256 198" xmlns="http://www.w3.org/2000/svg" preserveAspectRatio="xMinYMin meet"><path d="M154.565 138.602l39.246 58.547h62.044l-70.31-103.884-30.98 45.336M29.492 169.994l28.736-27.07 45.942 54.225L74.678 88.374l-24.9 40.962-20.286 40.657" fill="#429F87"/><path d="M29.492 169.994l45.186-81.62L45.95 115.46 0 61.23l29.492 108.764M249.938.603h-62.043l-38 56.144V.603h-56.91v58.23l30.344 111.833 7.07 26.483h19.496v-49.14L249.938.604" fill="#56C5A8"/></svg>
